X:203
T:Buy a Broom TS.203
T:Bavarian Air, A TS.203
T:O Du Lieber Augustin,aka TS.203
M:3/4
L:1/8
Q:3/4=50
S:Thomas Sands’ MS,1810,Lincolnshire
R:air
N:Additional final note “C” omitted from bars 7 and 15
O:England;Lincolnshire
Z:vmp.Ruairidh Greig, 2011
K:G
[d2B2][dB][ec][dB][cA]|[B2G2]G2G2|[A2F2]D2D2|[B2G2]GABc|
[d2B2][dB][ec][dB][cA]|[B2G2]G2G2|[A2F2]D2D2|[G4B,4]z2:|
|:[A2F2]D2D2|[B2G2]D2D2|[c2A2]D2D2|BAGABc|
[d2B2][dB][ec][dB][cA]|[B2G2]G2G2|[A2F2]D2D2|[G4B,4]:|]

